;FLAVOR:Marlin
;TIME:697
;Filament used: 0.493359m
;Layer height: 0.21875
;Generated with Cura_SteamEngine 3.6.0
M140 S65
M105
M190 S65
M104 S195
M105
M109 S195
M82 ;absolute extrusion mode
G21;(metric values)
G90;(absolute positioning)
M82;(set extruder to absolute mode)
M107;(start with the fan off)
G28;(Home the printer)
G92 E0;(Reset the extruder to 0)
G0 Z5 E5 F500;(Move up and prime the nozzle)
G0 X-1 Z0;(Move outside the printable area)
G1 Y60 E8 F500;(Draw a priming/wiping line to the rear)
G1 X-1;(Move a little closer to the print area)
G1 Y10 E16 F500;(draw more priming/wiping)
G1 E15 F250;(Small retract)
G92 E0;(Zero the extruder)
G92 E0
;LAYER_COUNT:15
;LAYER:0
M107
G0 F4320 X46.951 Y46.395 Z0.263
;TYPE:SKIRT
G1 F1800 X49.215 Y44.539 E0.11204
G1 X49.846 Y44.118 E0.14107
G1 X52.433 Y42.736 E0.25331
G1 X53.132 Y42.447 E0.28226
G1 X55.948 Y41.591 E0.3949
G1 X56.695 Y41.442 E0.42405
G1 X59.617 Y41.154 E0.53641
G1 X60.376 Y41.154 E0.56546
G1 X63.284 Y41.44 E0.67729
G1 X64.037 Y41.59 E0.70667
G1 X66.919 Y42.47 E0.82199
G1 X67.615 Y42.76 E0.85085
G1 X70.158 Y44.121 E0.96123
G1 X70.79 Y44.543 E0.99031
G1 X73.068 Y46.415 E1.10315
G1 X73.604 Y46.952 E1.13219
G1 X75.458 Y49.213 E1.24409
G1 X75.879 Y49.843 E1.27308
G1 X77.263 Y52.432 E1.38543
G1 X77.557 Y53.145 E1.41495
G1 X78.421 Y56.023 E1.52995
G1 X78.567 Y56.76 E1.5587
G1 X78.847 Y59.622 E1.66875
G1 X78.846 Y60.379 E1.69772
G1 X78.56 Y63.284 E1.80943
G1 X78.41 Y64.035 E1.83874
G1 X77.53 Y66.918 E1.9541
G1 X77.24 Y67.615 E1.98299
G1 X75.879 Y70.158 E2.09337
G1 X75.457 Y70.79 E2.12245
G1 X73.586 Y73.067 E2.23524
G1 X73.05 Y73.603 E2.26425
G1 X70.789 Y75.458 E2.37617
G1 X70.153 Y75.882 E2.40542
G1 X67.537 Y77.276 E2.51886
G1 X66.839 Y77.564 E2.54776
G1 X64.055 Y78.408 E2.65909
G1 X63.299 Y78.557 E2.68858
G1 X60.305 Y78.843 E2.80368
G1 X59.554 Y78.842 E2.83242
G1 X56.687 Y78.557 E2.94269
G1 X55.945 Y78.409 E2.97164
G1 X53.141 Y77.558 E3.08378
G1 X52.439 Y77.267 E3.11287
G1 X49.861 Y75.889 E3.22474
G1 X49.235 Y75.472 E3.25352
G1 X46.952 Y73.605 E3.36639
G1 X46.41 Y73.064 E3.39569
G1 X44.543 Y70.79 E3.50829
G1 X44.118 Y70.153 E3.5376
G1 X42.724 Y67.537 E3.65104
G1 X42.435 Y66.838 E3.67999
G1 X41.59 Y64.047 E3.79159
G1 X41.442 Y63.292 E3.82103
G1 X41.157 Y60.305 E3.93586
G1 X41.158 Y59.554 E3.9646
G1 X41.443 Y56.687 E4.07486
G1 X41.591 Y55.944 E4.10386
G1 X42.444 Y53.136 E4.21617
G1 X42.735 Y52.435 E4.24521
G1 X44.111 Y49.861 E4.35691
G1 X44.53 Y49.233 E4.3858
G1 X46.41 Y46.937 E4.49937
G1 X46.461 Y46.886 E4.50213
G0 F1620 X46.951 Y46.395
G0 F4320 X47.173 Y46.666
G1 F2400 E4.52869
G1 F1800 X49.437 Y44.81 E4.64073
G1 X50.011 Y44.427 E4.66713
G1 X52.598 Y43.045 E4.77938
G1 X53.234 Y42.781 E4.80573
G1 X56.05 Y41.925 E4.91837
G1 X56.729 Y41.79 E4.94486
G1 X59.651 Y41.502 E5.05723
G1 X60.342 Y41.502 E5.08368
G1 X63.25 Y41.788 E5.1955
G1 X63.934 Y41.925 E5.2222
G1 X66.816 Y42.805 E5.33752
G1 X67.45 Y43.068 E5.36379
G1 X69.993 Y44.429 E5.47417
G1 X70.568 Y44.814 E5.50065
G1 X72.846 Y46.686 E5.61349
G1 X73.334 Y47.174 E5.6399
G1 X75.188 Y49.435 E5.7518
G1 X75.571 Y50.008 E5.77818
G1 X76.955 Y52.597 E5.89053
G1 X77.222 Y53.245 E5.91735
G1 X78.086 Y56.123 E6.03235
G1 X78.218 Y56.794 E6.05852
G1 X78.498 Y59.656 E6.16857
G1 X78.498 Y60.344 E6.1949
G1 X78.212 Y63.249 E6.30661
G1 X78.075 Y63.933 E6.33331
G1 X77.195 Y66.816 E6.44866
G1 X76.932 Y67.45 E6.47493
G1 X75.571 Y69.993 E6.58531
G1 X75.187 Y70.568 E6.61177
G1 X73.316 Y72.845 E6.72456
G1 X72.828 Y73.332 E6.75094
G1 X70.567 Y75.187 E6.86287
G1 X69.989 Y75.573 E6.88947
G1 X67.373 Y76.967 E7.00291
G1 X66.738 Y77.229 E7.0292
G1 X63.954 Y78.073 E7.14053
G1 X63.266 Y78.209 E7.16737
G1 X60.272 Y78.495 E7.28247
G1 X59.588 Y78.494 E7.30865
G1 X56.721 Y78.209 E7.41891
G1 X56.046 Y78.074 E7.44525
G1 X53.242 Y77.223 E7.55739
G1 X52.604 Y76.959 E7.58382
G1 X50.026 Y75.581 E7.69569
G1 X49.456 Y75.201 E7.7219
G1 X47.173 Y73.334 E7.83477
G1 X46.681 Y72.842 E7.8614
G1 X44.814 Y70.568 E7.974
G1 X44.427 Y69.989 E8.00065
G1 X43.033 Y67.373 E8.11409
G1 X42.77 Y66.736 E8.14046
G1 X41.925 Y63.945 E8.25206
G1 X41.79 Y63.259 E8.27882
G1 X41.505 Y60.272 E8.39365
G1 X41.506 Y59.588 E8.41983
G1 X41.791 Y56.721 E8.53009
G1 X41.926 Y56.045 E8.55647
G1 X42.779 Y53.237 E8.66878
G1 X43.043 Y52.6 E8.69517
G1 X44.419 Y50.026 E8.80687
G1 X44.801 Y49.455 E8.83316
G1 X46.681 Y47.159 E8.94673
G1 X46.683 Y47.157 E8.94683
G0 F1620 X47.173 Y46.666
G0 F4320 X47.395 Y46.937
G1 F2400 E8.97339
G1 F1800 X49.659 Y45.081 E9.08543
G1 X50.176 Y44.736 E9.10922
G1 X52.763 Y43.354 E9.22146
G1 X53.336 Y43.116 E9.24521
G1 X56.152 Y42.26 E9.35784
G1 X56.764 Y42.138 E9.38173
G1 X59.686 Y41.85 E9.49409
G1 X60.308 Y41.85 E9.5179
G1 X63.216 Y42.136 E9.62972
G1 X63.832 Y42.259 E9.65376
G1 X66.714 Y43.139 E9.76908
G1 X67.285 Y43.377 E9.79276
G1 X69.828 Y44.738 E9.90314
G1 X70.346 Y45.084 E9.92698
G1 X72.624 Y46.956 E10.03982
G1 X73.063 Y47.396 E10.0636
G1 X74.917 Y49.657 E10.1755
G1 X75.262 Y50.173 E10.19926
G1 X76.646 Y52.762 E10.31161
G1 X76.887 Y53.346 E10.33579
G1 X77.751 Y56.224 E10.45078
G1 X77.87 Y56.828 E10.47434
G1 X78.15 Y59.69 E10.58439
G1 X78.15 Y60.31 E10.60812
G1 X77.864 Y63.215 E10.71983
G1 X77.741 Y63.831 E10.74387
G1 X76.861 Y66.714 E10.85923
G1 X76.623 Y67.285 E10.8829
G1 X75.262 Y69.828 E10.99329
G1 X74.916 Y70.346 E11.01713
G1 X73.045 Y72.623 E11.12991
G1 X72.606 Y73.062 E11.15367
G1 X70.345 Y74.917 E11.26559
G1 X69.824 Y75.264 E11.28955
G1 X67.208 Y76.658 E11.40299
G1 X66.636 Y76.894 E11.42667
G1 X63.852 Y77.738 E11.538
G1 X63.233 Y77.861 E11.56216
G1 X60.239 Y78.147 E11.67726
G1 X59.623 Y78.145 E11.70083
G1 X56.756 Y77.86 E11.81109
G1 X56.148 Y77.739 E11.83482
G1 X53.344 Y76.888 E11.94696
G1 X52.769 Y76.65 E11.97077
G1 X50.191 Y75.272 E12.08264
G1 X49.678 Y74.93 E12.10624
G1 X47.395 Y73.063 E12.21911
G1 X46.951 Y72.62 E12.24311
G1 X45.084 Y70.346 E12.35571
G1 X44.736 Y69.824 E12.37972
G1 X43.342 Y67.208 E12.49316
G1 X43.105 Y66.635 E12.51689
G1 X42.26 Y63.844 E12.62849
G1 X42.138 Y63.226 E12.65259
G1 X41.853 Y60.239 E12.76743
G1 X41.855 Y59.623 E12.791
G1 X42.14 Y56.756 E12.90126
G1 X42.261 Y56.147 E12.92502
G1 X43.114 Y53.339 E13.03733
G1 X43.352 Y52.765 E13.06111
G1 X44.728 Y50.191 E13.17281
G1 X45.071 Y49.677 E13.19646
G1 X46.909 Y47.432 E13.3075
G0 F1620 X46.951 Y47.381
G0 X47.395 Y46.937
;MESH:201911_JS_Profile_2part_coin-Coin.stl
G0 F4320 X48.994 Y48.862
G0 X49.611 Y49.611
G0 X47.089 Y54.653
G0 X46.293 Y57.273
G0 X46.024 Y60
G0 X46.292 Y62.723
G0 X47.089 Y65.346
G0 X48.38 Y67.763
G0 X50.118 Y69.882
G0 X52.237 Y71.62
G0 X54.653 Y72.911
G0 X57.277 Y73.708
G0 X60 Y73.976
G0 X62.723 Y73.708
G0 X65.347 Y72.911
G0 X67.763 Y71.62
G0 X68.418 Y71.037
G0 X66.48 Y71.079
G0 X58.601 Y71.526
G0 X57.464 Y69.955
G0 X55.837 Y67.495
G0 X50.962 Y63.59
G0 X49.845 Y57.976
G0 X49.526 Y53.46
G0 X52.477 Y50.159
G0 X54.794 Y50.703
G0 X55.275 Y50.152
G0 X65.223 Y50.664
G0 X66.042 Y51.181
;TYPE:WALL-INNER
G1 F2400 E13.33406
G1 F1800 X65.592 Y50.111 E13.37848
G1 X58.594 Y50.086 E13.6463
G1 X55.894 Y50.067 E13.74963
G1 X55.492 Y50.189 E13.76571
G1 X55.034 Y50.53 E13.78756
G1 X54.887 Y50.888 E13.80237
G1 X54.79 Y50.866 E13.80617
G1 X54.632 Y50.814 E13.81254
G1 X53.958 Y50.557 E13.84015
G1 X53.699 Y50.475 E13.85054
G1 X53.428 Y50.403 E13.86127
G1 X53.149 Y50.343 E13.87219
G1 X52.841 Y50.303 E13.88408
G1 X52.492 Y50.305 E13.89744
G1 X52.122 Y50.376 E13.91186
G1 X51.755 Y50.525 E13.92701
G1 X51.41 Y50.748 E13.94274
G1 X51.097 Y51.037 E13.95904
G1 X50.8 Y51.383 E13.97649
G1 X50.514 Y51.796 E13.99571
G1 X50.225 Y52.284 E14.01742
G1 X49.958 Y52.795 E14.03948
G1 X49.885 Y52.908 E14.04463
G1 X49.795 Y53.08 E14.05206
G1 X49.721 Y53.268 E14.05979
G1 X49.671 Y53.481 E14.06817
G1 X49.659 Y53.715 E14.07713
G1 X49.692 Y53.948 E14.08614
G1 X49.745 Y54.103 E14.09241
G1 X49.718 Y54.169 E14.09514
G1 X49.668 Y54.359 E14.10266
G1 X49.644 Y54.553 E14.11014
G1 X49.644 Y54.786 E14.11905
G1 X49.685 Y54.961 E14.12593
G1 X49.283 Y55.402 E14.14877
G1 X49.129 Y55.92 E14.16945
G1 X49.171 Y56.379 E14.18709
G1 X49.298 Y56.734 E14.20152
G1 X49.447 Y57.03 E14.2142
G1 X49.878 Y57.73 E14.24566
G1 X49.978 Y57.916 E14.25374
G1 X50.044 Y58.073 E14.26026
G1 X50.063 Y58.168 E14.26397
G1 X49.965 Y58.534 E14.27847
G1 X49.904 Y58.803 E14.28902
G1 X49.853 Y59.077 E14.29969
G1 X49.812 Y59.355 E14.31044
G1 X49.785 Y59.642 E14.32148
G1 X49.774 Y59.934 E14.33266
G1 X49.779 Y60.23 E14.34399
G1 X49.805 Y60.535 E14.3557
G1 X49.857 Y60.844 E14.3677
G1 X49.932 Y61.151 E14.37979
G1 X50.015 Y61.4 E14.38983
G1 X50.084 Y61.647 E14.39965
G1 X50.188 Y61.931 E14.41122
G1 X50.31 Y62.202 E14.4226
G1 X50.564 Y62.67 E14.44298
G1 X51.084 Y63.474 E14.47962
G1 X51.305 Y63.833 E14.49575
G1 X51.452 Y64.107 E14.50765
G1 X51.711 Y64.421 E14.52323
G1 X52.104 Y64.929 E14.54781
G1 X52.334 Y65.208 E14.56165
G1 X52.603 Y65.492 E14.57662
G1 X52.824 Y65.681 E14.58775
G1 X52.929 Y65.807 E14.59402
G1 X53.111 Y65.998 E14.60412
G1 X53.303 Y66.172 E14.61404
G1 X53.507 Y66.333 E14.62398
G1 X53.714 Y66.476 E14.63361
G1 X53.925 Y66.606 E14.64309
G1 X54.142 Y66.724 E14.65255
G1 X54.371 Y66.833 E14.66225
G1 X54.806 Y67.006 E14.68017
G1 X55.21 Y67.13 E14.69634
G1 X55.446 Y67.215 E14.70594
G1 X55.722 Y67.303 E14.71703
G1 X55.937 Y67.358 E14.72552
G1 X56.028 Y67.381 E14.72911
G1 X56.111 Y67.403 E14.7324
G1 X55.988 Y67.538 E14.73593
G1 X55.965 Y67.628 E14.7388
G1 X55.854 Y68.049 E14.75547
G1 X55.924 Y68.513 E14.77343
G1 X56.145 Y69.018 E14.79452
G1 X56.422 Y69.257 E14.80852
G1 X56.61 Y69.391 E14.81736
G1 X56.974 Y69.597 E14.83336
G1 X57.196 Y69.696 E14.84267
G1 X57.414 Y69.78 E14.85161
G1 X57.615 Y69.844 E14.85968
G1 X57.616 Y69.945 E14.86355
G1 X57.671 Y70.248 E14.87533
G1 X57.775 Y70.529 E14.8868
G1 X57.919 Y70.787 E14.8981
G1 X58.112 Y71.026 E14.90986
G1 X58.357 Y71.231 E14.92209
G1 X58.654 Y71.389 E14.93496
G1 X59.003 Y71.479 E14.94875
G1 X59.334 Y71.476 E14.96142
G1 X59.537 Y71.53 E14.96946
G1 X59.868 Y71.638 E14.98279
G1 X60.246 Y71.749 E14.99786
G1 X60.482 Y71.794 E15.00706
G1 X60.739 Y71.818 E15.01694
G1 X61.043 Y71.797 E15.0286
G1 X61.463 Y71.668 E15.04541
G1 X61.601 Y71.726 E15.05114
G1 X61.98 Y71.8 E15.06592
G1 X62.343 Y71.818 E15.07983
G1 X62.693 Y71.795 E15.09325
G1 X63.032 Y71.739 E15.1064
G1 X63.356 Y71.654 E15.11922
G1 X63.664 Y71.539 E15.1318
G1 X63.844 Y71.448 E15.13952
G1 X64.152 Y71.328 E15.15217
G1 X64.326 Y71.464 E15.16062
G1 X64.834 Y71.57 E15.18048
G1 X65.264 Y71.527 E15.19702
G1 X65.646 Y71.412 E15.21229
G1 X66.001 Y71.238 E15.22742
G1 X66.33 Y71.011 E15.24271
G1 X66.448 Y70.898 E15.24897
G1 X66.749 Y71.035 E15.26162
G1 X67.035 Y71.098 E15.27283
G1 X67.308 Y71.12 E15.28331
G1 X67.585 Y71.105 E15.29393
G1 X67.861 Y71.056 E15.30466
G1 X68.139 Y70.97 E15.31579
G1 X68.361 Y70.864 E15.32521
G1 X68.419 Y70.837 E15.32766
G1 X68.687 Y70.652 E15.34012
G1 X68.936 Y70.402 E15.35362
G1 X68.948 Y70.383 E15.35448
G1 X69.133 Y70.081 E15.36804
G1 X69.186 Y69.922 E15.37445
G1 X69.311 Y69.733 E15.38312
G1 X69.429 Y69.301 E15.40026
G1 X69.418 Y68.9 E15.41561
G1 X69.334 Y68.57 E15.42864
G1 X69.269 Y68.415 E15.43508
G1 X69.433 Y68.333 E15.44209
G1 X69.681 Y68.156 E15.45375
G1 X69.894 Y67.951 E15.46507
G1 X70.078 Y67.721 E15.47634
G1 X70.229 Y67.468 E15.48761
G1 X70.346 Y67.198 E15.49888
G1 X70.43 Y66.917 E15.5101
G1 X70.526 Y66.376 E15.53113
G1 X70.278 Y65.918 E15.55106
G1 X70.123 Y65.702 E15.56123
G1 X70 Y65.573 E15.56806
G1 X69.94 Y65.51 E15.57138
G1 X69.887 Y65.47 E15.57393
G1 X69.821 Y65.419 E15.57712
G1 X69.88 Y65.39 E15.57747
G1 X69.988 Y65.336 E15.57986
G1 X70.053 Y65.279 E15.58316
G1 X70.286 Y65.071 E15.59512
G1 X70.512 Y64.766 E15.60964
G1 X70.682 Y64.42 E15.6244
G1 X70.789 Y64.028 E15.63995
G1 X70.808 Y63.582 E15.65703
G1 X70.685 Y63.101 E15.67603
G1 X70.459 Y62.767 E15.69147
G1 X70.246 Y62.49 E15.70484
G1 X70.307 Y62.35 E15.71068
G1 X70.626 Y62.063 E15.7271
G1 X70.862 Y61.628 E15.74604
G1 X70.903 Y61.127 E15.76528
G1 X70.754 Y60.688 E15.78302
G1 X70.495 Y60.36 E15.79902
G1 X70.165 Y60.138 E15.81424
G1 X70.084 Y60.112 E15.81749
G1 X69.991 Y59.682 E15.83433
G1 X69.476 Y59.316 E15.85851
G1 X69.474 Y59.315 E15.8586
G1 X69.374 Y59.297 E15.86248
G1 X69.364 Y59.295 E15.86287
G1 X69.338 Y59.29 E15.86389
G1 X69.34 Y59.28
G1 X69.422 Y58.977 E15.87272
G1 X69.434 Y58.973 E15.8731
G1 X69.435 Y58.971 E15.87318
G1 X69.812 Y58.523 E15.89559
G1 X69.928 Y58.025 E15.91516
G1 X69.903 Y57.251 E15.9448
G1 X69.616 Y57.003 E15.95931
G1 X69.673 Y56.898 E15.96389
G1 X69.756 Y56.38 E15.98396
G1 X69.693 Y55.908 E16.00219
G1 X69.541 Y55.491 E16.01917
G1 X69.321 Y55.13 E16.03535
G1 X69.047 Y54.814 E16.05136
G1 X68.714 Y54.553 E16.06755
G1 X68.296 Y54.356 E16.08523
G1 X67.768 Y54.292 E16.10559
G1 X67.424 Y54.405 E16.11944
G1 X67.237 Y54.202 E16.13001
G1 X67.002 Y54.036 E16.14102
G1 X66.758 Y53.915 E16.15144
G1 X66.506 Y53.834 E16.16157
G1 X66.102 Y53.754 E16.17733
G1 X65.492 Y53.912 E16.20145
G1 X65.07 Y54.077 E16.21879
G1 X64.691 Y54.285 E16.23533
G1 X64.36 Y54.532 E16.25114
G1 X64.077 Y54.819 E16.26656
G1 X63.852 Y55.147 E16.28178
G1 X63.692 Y55.513 E16.29707
G1 X63.63 Y55.829 E16.3094
G1 X63.535 Y55.821 E16.31304
G1 X63.191 Y55.83 E16.32621
G1 X62.943 Y55.867 E16.33581
G1 X62.854 Y55.879 E16.33925
G1 X62.773 Y55.901 E16.34246
G1 X62.765 Y55.903 E16.34277
G1 X62.637 Y55.938 E16.34785
G1 X62.645 Y55.858 E16.34813
G1 X62.654 Y55.769 E16.35102
G1 X62.676 Y55.576 E16.35845
G1 X62.677 Y55.568 E16.35876
G1 X62.714 Y55.366 E16.36662
G1 X62.767 Y55.154 E16.37498
G1 X62.837 Y54.934 E16.38382
G1 X62.96 Y54.641 E16.39598
G1 X63.109 Y54.346 E16.40863
G1 X63.277 Y54.059 E16.42135
G1 X63.479 Y53.764 E16.43504
G1 X63.68 Y53.514 E16.44731
G1 X63.96 Y53.221 E16.46282
G1 X64.083 Y53.058 E16.47064
G1 X64.292 Y52.825 E16.48262
G1 X64.541 Y52.59 E16.49572
G1 X65.135 Y52.074 E16.52583
G1 X65.467 Y51.767 E16.54313
G1 X65.751 Y51.478 E16.55864
G0 F1620 X66.042 Y51.181
G0 F4320 X63.6 Y53.846
G0 X63.095 Y54.697
G0 X62.821 Y55.591
G0 X62.823 Y55.721
G0 X63.504 Y55.668
G0 X66.542 Y53.693
G0 X69.836 Y55.873
G0 X69.53 Y59.166
G0 X70.742 Y62.155
G0 X70.421 Y62.47
G0 X69.775 Y68.269
G0 X69.472 Y68.523
G0 X69.094 Y70.486
G0 X69.171 Y70.652
G1 F2400 E16.57456
G1 F1800 X69.154 Y70.666 E16.5754
G1 X68.883 Y70.889 E16.58784
G1 X68.632 Y71.095 E16.59927
G1 X68.582 Y71.136 E16.60169
G1 X67.844 Y71.741 E16.63821
G1 X65.402 Y73.047 E16.74419
G1 X62.753 Y73.851 E16.85013
G1 X60 Y74.122 E16.956
G1 X57.247 Y73.851 E17.06186
G1 X54.598 Y73.047 E17.16781
G1 X52.156 Y71.741 E17.27379
G1 X50.015 Y69.985 E17.37976
G1 X48.259 Y67.844 E17.48573
G1 X46.953 Y65.401 E17.59174
G1 X46.149 Y62.753 E17.69765
G1 X45.878 Y60 E17.80352
G1 X46.15 Y57.243 E17.90954
G1 X46.953 Y54.598 E18.01532
G1 X48.259 Y52.156 E18.12131
G1 X50.015 Y50.015 E18.22728
G1 X52.156 Y48.259 E18.33325
G1 X54.598 Y46.953 E18.43923
G1 X57.247 Y46.149 E18.54517
G1 X60 Y45.878 E18.65104
G1 X62.753 Y46.149 E18.7569
G1 X65.402 Y46.953 E18.86285
G1 X67.844 Y48.259 E18.96883
G1 X69.985 Y50.015 E19.0748
G1 X71.741 Y52.156 E19.18077
G1 X73.047 Y54.598 E19.28675
G1 X73.85 Y57.243 E19.39253
G1 X74.122 Y60 E19.49856
G1 X73.851 Y62.753 E19.60442
G1 X73.047 Y65.401 E19.71033
G1 X71.741 Y67.844 E19.81634
G1 X69.985 Y69.985 E19.92231
G1 X69.707 Y70.212 E19.93605
G0 F1620 X69.171 Y70.652
G0 F4320 X68.82 Y69.387
G0 X68.87 Y68.979
G0 X68.722 Y68.534
G0 X68.442 Y68.038
G0 X68.375 Y67.977
G0 X68.387 Y68.016
G0 X68.301 Y67.085
G0 X65.641 Y66.037
G0 X64.917 Y60.188
G0 X63.892 Y59.893
G0 X62.936 Y59.559
G0 X62.577 Y58.212
G1 F2400 E19.96261
G1 F1800 X62.556 Y58.15 E19.96511
G1 X62.672 Y58.181 E19.967
G1 X62.621 Y58.351 E19.97101
G1 X62.577 Y58.212 E19.97149
G0 F4320 X62.179 Y57.603
G0 X62.162 Y56.825
G0 X62.83 Y55.721
G0 X62.971 Y54.993
G0 X63.315 Y54.305
G0 X65.629 Y51.102
G1 F1800 X65.359 Y50.46 E19.99814
G1 X58.591 Y50.436 E20.25715
G1 X55.945 Y50.417 E20.35842
G1 X55.652 Y50.506 E20.37014
G1 X55.321 Y50.753 E20.38594
G1 X55.176 Y51.105 E20.40051
G1 X55.112 Y51.197 E20.4048
G1 X55.074 Y51.228 E20.40668
G1 X55.039 Y51.242 E20.40812
G1 X54.969 Y51.25 E20.41081
G1 X54.856 Y51.24 E20.41516
G1 X54.696 Y51.203 E20.42144
G1 X54.524 Y51.147 E20.42836
G1 X53.843 Y50.888 E20.45625
