;FLAVOR:Marlin
;TIME:728
;Filament used: 0.336366m
;Layer height: 0.13125
;Generated with Cura_SteamEngine 3.6.0
M140 S65
M105
M190 S65
M104 S205
M105
M109 S205
M82 ;absolute extrusion mode
G21;(metric values)
G90;(absolute positioning)
M82;(set extruder to absolute mode)
M107;(start with the fan off)
G28;(Home the printer)
G92 E0;(Reset the extruder to 0)
G0 Z5 E5 F500;(Move up and prime the nozzle)
G0 X-1 Z0;(Move outside the printable area)
G1 Y60 E8 F500;(Draw a priming/wiping line to the rear)
G1 X-1;(Move a little closer to the print area)
G1 Y10 E16 F500;(draw more priming/wiping)
G1 E15 F250;(Small retract)
G92 E0;(Zero the extruder)
G92 E0
G1 F2400 E-2.5
;LAYER_COUNT:25
;LAYER:0
M107
G0 F4320 X48.298 Y47.048 Z0.263
;TYPE:SKIRT
G1 F2400 E0
G1 F1800 X48.765 Y46.616 E0.02435
G1 X49.283 Y46.245 E0.04873
G1 X49.595 Y46.065 E0.06251
G1 X50.016 Y45.842 E0.08075
G1 X50.597 Y45.58 E0.10514
G1 X51.206 Y45.393 E0.12952
G1 X51.88 Y45.278 E0.15569
G1 X52.294 Y45.236 E0.17161
G1 X52.93 Y45.212 E0.19597
G1 X53.824 Y45.313 E0.2304
G1 X54.085 Y45.366 E0.24059
G1 X54.188 Y45.319 E0.24492
G1 X54.795 Y45.126 E0.2693
G1 X55.421 Y45.011 E0.29366
G1 X56.049 Y44.975 E0.31773
G1 X64.993 Y45.017 E0.66002
G1 X65.628 Y45.06 E0.68438
G1 X66.253 Y45.182 E0.70875
G1 X66.858 Y45.382 E0.73313
G1 X67.433 Y45.655 E0.75749
G1 X67.969 Y45.999 E0.78187
G1 X68.458 Y46.407 E0.80624
G1 X68.892 Y46.873 E0.83061
G1 X69.265 Y47.39 E0.85501
G1 X69.569 Y47.949 E0.87936
G1 X69.802 Y48.542 E0.90374
G1 X69.958 Y49.16 E0.92813
G1 X70.019 Y49.662 E0.94749
G1 X70.228 Y49.738 E0.956
G1 X70.794 Y50.029 E0.98035
G1 X71.32 Y50.389 E1.00475
G1 X71.705 Y50.723 E1.02425
G1 X72.066 Y51.069 E1.04339
G1 X72.497 Y51.538 E1.06777
G1 X72.866 Y52.057 E1.09214
G1 X73.122 Y52.522 E1.11245
G1 X73.349 Y52.991 E1.13239
G1 X73.59 Y53.581 E1.15678
G1 X73.755 Y54.196 E1.18115
G1 X73.842 Y54.827 E1.20553
G1 X73.855 Y55.275 E1.22268
G1 X73.854 Y55.354 E1.2257
G1 X73.918 Y55.564 E1.2341
G1 X74.026 Y56.192 E1.25849
G1 X74.041 Y57.113 E1.29374
G1 X74.032 Y57.238 E1.29854
G1 X74.271 Y57.618 E1.31572
G1 X74.396 Y57.845 E1.32563
G1 X74.667 Y58.421 E1.35
G1 X74.864 Y59.027 E1.37438
G1 X74.984 Y59.652 E1.39874
G1 X75.025 Y60.288 E1.42313
G1 X74.986 Y60.923 E1.44747
G1 X74.811 Y61.722 E1.47878
G1 X74.858 Y61.992 E1.48927
G1 X74.902 Y62.42 E1.50573
G1 X74.928 Y63.056 E1.53009
G1 X74.873 Y63.691 E1.55448
G1 X74.739 Y64.314 E1.57887
G1 X74.591 Y64.76 E1.59686
G1 X74.562 Y64.835 E1.59993
G1 X74.615 Y65.28 E1.61708
G1 X74.609 Y65.916 E1.64142
G1 X74.524 Y66.548 E1.66583
G1 X74.317 Y67.286 E1.69516
G1 X74.065 Y67.98 E1.72342
G1 X73.811 Y68.564 E1.74779
G1 X73.485 Y69.111 E1.77216
G1 X73.475 Y69.124 E1.77279
G1 X73.426 Y69.404 E1.78366
G1 X73.238 Y70.012 E1.80802
G1 X73.09 Y70.363 E1.8226
G1 X72.784 Y71.018 E1.85027
G1 X72.479 Y71.577 E1.87464
G1 X72.106 Y72.093 E1.899
G1 X71.433 Y72.77 E1.93553
G1 X71.17 Y72.989 E1.94863
G1 X70.656 Y73.365 E1.973
G1 X70.099 Y73.674 E1.99738
G1 X69.772 Y73.815 E2.01101
G1 X69.45 Y73.941 E2.02424
G1 X68.844 Y74.135 E2.04859
G1 X68.218 Y74.252 E2.07296
G1 X67.894 Y74.282 E2.08542
G1 X67.409 Y74.31 E2.10401
G1 X67.134 Y74.308 E2.11453
G1 X66.946 Y74.384 E2.12229
G1 X66.341 Y74.584 E2.14668
G1 X65.716 Y74.707 E2.17106
G1 X64.846 Y74.746 E2.20438
G1 X64.456 Y74.73 E2.21932
G1 X64.352 Y74.719 E2.22333
G1 X63.972 Y74.833 E2.23851
G1 X63.401 Y74.933 E2.26069
G1 X62.889 Y74.992 E2.28042
G1 X62.253 Y75.025 E2.30479
G1 X61.706 Y74.989 E2.32577
G1 X61.474 Y74.961 E2.33471
G1 X61.024 Y75.016 E2.35206
G1 X60.387 Y75.012 E2.37644
G1 X59.509 Y74.875 E2.41045
G1 X58.523 Y74.63 E2.44933
G1 X57.946 Y74.55 E2.47162
G1 X57.331 Y74.383 E2.49601
G1 X56.742 Y74.14 E2.52039
G1 X56.117 Y73.779 E2.54802
G1 X55.881 Y73.619 E2.55893
G1 X55.377 Y73.229 E2.58332
G1 X54.927 Y72.779 E2.60767
G1 X54.53 Y72.269 E2.6324
G1 X54.365 Y72.026 E2.64365
G1 X54.276 Y71.876 E2.65032
G1 X54.073 Y71.742 E2.65963
G1 X53.565 Y71.359 E2.68398
G1 X53.108 Y70.915 E2.70836
G1 X52.711 Y70.417 E2.73273
G1 X52.379 Y69.874 E2.75709
G1 X52.21 Y69.467 E2.77396
G1 X52.179 Y69.45 E2.77531
G1 X51.491 Y69.05 E2.80577
G1 X50.962 Y68.696 E2.83013
G1 X50.519 Y68.316 E2.85246
G1 X49.486 Y67.32 E2.90738
G1 X49.045 Y66.835 E2.93246
G1 X48.241 Y65.829 E2.98175
G1 X47.881 Y65.318 E3.00567
G1 X46.905 Y63.73 E3.077
G1 X46.49 Y62.888 E3.11293
G1 X46.066 Y61.781 E3.15829
G1 X45.834 Y60.989 E3.18988
G1 X45.735 Y60.508 E3.20867
G1 X45.632 Y59.605 E3.24345
G1 X45.615 Y58.885 E3.27102
G1 X45.64 Y58.248 E3.29541
G1 X45.69 Y57.914 E3.30834
G1 X45.42 Y57.342 E3.33254
G1 X45.19 Y56.602 E3.3622
G1 X45.103 Y56.222 E3.37712
G1 X45 Y55.593 E3.40151
G1 X44.977 Y54.957 E3.42587
G1 X45.033 Y54.322 E3.45026
G1 X45.169 Y53.7 E3.47463
G1 X45.381 Y53.1 E3.49898
G1 X45.512 Y52.84 E3.51012
G1 X45.561 Y52.074 E3.5395
G1 X45.606 Y51.778 E3.55096
G1 X45.741 Y51.156 E3.57531
G1 X45.953 Y50.555 E3.5997
G1 X46.254 Y49.958 E3.62529
G1 X47.152 Y48.439 E3.69282
G1 X47.51 Y47.913 E3.71717
G1 X47.821 Y47.551 E3.73543
G0 F1620 X47.848 Y47.52
G0 X48.298 Y47.048
G0 F4320 X48.551 Y47.29
G1 F2400 E3.76199
G1 F1800 X49.003 Y46.873 E3.78553
G1 X49.759 Y46.375 E3.82017
G1 X50.18 Y46.152 E3.83841
G1 X50.741 Y45.9 E3.86194
G1 X51.329 Y45.723 E3.88544
G1 X51.915 Y45.626 E3.90817
G1 X52.329 Y45.584 E3.9241
G1 X52.943 Y45.562 E3.94761
G1 X53.754 Y45.656 E3.97886
G1 X54.129 Y45.733 E3.99351
G1 X54.335 Y45.638 E4.00219
G1 X54.922 Y45.456 E4.02571
G1 X55.527 Y45.351 E4.04921
G1 X56.047 Y45.325 E4.06913
G1 X64.991 Y45.367 E4.41142
G1 X65.604 Y45.41 E4.43494
G1 X66.206 Y45.532 E4.45845
G1 X66.788 Y45.731 E4.48199
G1 X67.338 Y46.004 E4.50549
G1 X67.849 Y46.346 E4.52902
G1 X68.311 Y46.751 E4.55253
G1 X68.716 Y47.213 E4.57604
G1 X69.058 Y47.724 E4.59957
G1 X69.33 Y48.275 E4.62309
G1 X69.529 Y48.856 E4.64659
G1 X69.651 Y49.458 E4.6701
G1 X69.683 Y49.911 E4.68748
G1 X70.107 Y50.067 E4.70477
G1 X70.652 Y50.352 E4.72831
G1 X71.155 Y50.705 E4.75182
G1 X71.462 Y50.976 E4.76749
G1 X71.823 Y51.322 E4.78663
G1 X72.239 Y51.775 E4.81017
G1 X72.591 Y52.278 E4.83366
G1 X72.807 Y52.675 E4.85096
G1 X73.034 Y53.144 E4.8709
G1 X73.265 Y53.713 E4.8944
G1 X73.421 Y54.307 E4.9179
G1 X73.497 Y54.917 E4.94143
G1 X73.506 Y55.27 E4.95494
G1 X73.504 Y55.407 E4.96019
G1 X73.601 Y55.75 E4.97383
G1 X73.69 Y56.358 E4.99734
G1 X73.692 Y57.087 E5.02524
G1 X73.674 Y57.334 E5.03472
G1 X73.724 Y57.398 E5.03783
G1 X73.964 Y57.787 E5.05532
G1 X74.089 Y58.014 E5.06524
G1 X74.35 Y58.57 E5.08874
G1 X74.536 Y59.156 E5.11227
G1 X74.645 Y59.761 E5.1358
G1 X74.674 Y60.374 E5.15929
G1 X74.624 Y60.987 E5.18282
G1 X74.456 Y61.709 E5.21119
G1 X74.51 Y62.028 E5.22357
G1 X74.554 Y62.456 E5.24004
G1 X74.577 Y63.07 E5.26355
G1 X74.52 Y63.682 E5.28708
G1 X74.384 Y64.281 E5.31058
G1 X74.264 Y64.634 E5.32485
G1 X74.208 Y64.781 E5.33087
G1 X74.211 Y64.795 E5.33142
G1 X74.27 Y65.406 E5.35491
G1 X74.249 Y66.02 E5.37842
G1 X74.149 Y66.627 E5.40197
G1 X73.988 Y67.167 E5.42353
G1 X73.736 Y67.861 E5.45179
G1 X73.489 Y68.423 E5.47528
G1 X73.172 Y68.949 E5.49878
G1 X73.146 Y68.981 E5.50036
G1 X73.07 Y69.385 E5.51609
G1 X72.773 Y70.215 E5.54983
G1 X72.467 Y70.87 E5.5775
G1 X72.171 Y71.409 E5.60103
G1 X71.808 Y71.904 E5.62452
G1 X71.21 Y72.501 E5.65686
G1 X70.947 Y72.72 E5.66996
G1 X70.45 Y73.082 E5.69349
G1 X69.645 Y73.489 E5.72801
G1 X69.323 Y73.615 E5.74124
G1 X68.737 Y73.801 E5.76477
G1 X67.873 Y73.932 E5.79821
G1 X67.388 Y73.96 E5.81681
G1 X67.067 Y73.958 E5.82909
G1 X66.815 Y74.059 E5.83948
G1 X66.232 Y74.251 E5.86297
G1 X65.628 Y74.365 E5.88649
G1 X64.86 Y74.396 E5.91591
G1 X64.47 Y74.38 E5.93085
G1 X64.32 Y74.364 E5.93662
G1 X63.872 Y74.497 E5.9545
G1 X63.361 Y74.585 E5.97435
G1 X62.849 Y74.644 E5.99407
G1 X62.235 Y74.674 E6.0176
G1 X61.747 Y74.642 E6.03631
G1 X61.473 Y74.609 E6.04687
G1 X60.983 Y74.667 E6.06576
G1 X60.368 Y74.66 E6.0893
G1 X59.594 Y74.535 E6.1193
G1 X58.599 Y74.288 E6.15853
G1 X57.995 Y74.202 E6.18188
G1 X57.403 Y74.037 E6.2054
G1 X56.838 Y73.797 E6.22889
G1 X56.314 Y73.489 E6.25216
G1 X56.078 Y73.329 E6.26307
G1 X55.592 Y72.952 E6.28661
G1 X55.16 Y72.515 E6.31012
G1 X54.82 Y72.072 E6.33149
G1 X54.655 Y71.829 E6.34273
G1 X54.537 Y71.629 E6.35162
G1 X54.266 Y71.45 E6.36405
G1 X53.776 Y71.079 E6.38757
G1 X53.339 Y70.648 E6.41106
G1 X52.961 Y70.163 E6.43459
G1 X52.649 Y69.634 E6.4581
G1 X52.474 Y69.203 E6.4759
G1 X52.355 Y69.148 E6.48092
G1 X51.667 Y68.748 E6.51137
G1 X51.157 Y68.405 E6.53489
G1 X50.762 Y68.064 E6.55486
G1 X49.729 Y67.068 E6.60978
G1 X49.318 Y66.617 E6.63313
G1 X48.514 Y65.611 E6.68242
G1 X48.18 Y65.135 E6.70467
G1 X47.204 Y63.547 E6.776
G1 X46.817 Y62.763 E6.80946
G1 X46.393 Y61.656 E6.85483
G1 X46.177 Y60.919 E6.88422
G1 X46.078 Y60.438 E6.90301
G1 X45.982 Y59.597 E6.93541
G1 X45.965 Y58.877 E6.96297
G1 X45.991 Y58.263 E6.98649
G1 X46.054 Y57.849 E7.00252
G1 X45.999 Y57.749 E7.00688
G1 X45.738 Y57.193 E7.03039
G1 X45.531 Y56.523 E7.05723
G1 X45.444 Y56.143 E7.07214
G1 X45.346 Y55.537 E7.09564
G1 X45.328 Y54.923 E7.11915
G1 X45.389 Y54.311 E7.14268
G1 X45.53 Y53.713 E7.1662
G1 X45.747 Y53.138 E7.18972
G1 X45.858 Y52.922 E7.19901
G1 X45.853 Y52.842 E7.20208
G1 X45.907 Y52.127 E7.22952
G1 X45.952 Y51.831 E7.24098
G1 X46.083 Y51.231 E7.26448
G1 X46.292 Y50.653 E7.288
G1 X46.556 Y50.136 E7.31022
G1 X47.454 Y48.617 E7.37775
G1 X47.8 Y48.11 E7.40124
G1 X48.074 Y47.793 E7.41727
G0 F1620 X48.101 Y47.762
G0 X48.551 Y47.29
G0 F4320 X48.804 Y47.531
G1 F2400 E7.44383
G1 F1800 X49.24 Y47.132 E7.46645
G1 X49.923 Y46.684 E7.49771
G1 X50.344 Y46.461 E7.51594
G1 X50.884 Y46.22 E7.53857
G1 X51.452 Y46.054 E7.56122
G1 X51.95 Y45.974 E7.58052
G1 X52.364 Y45.932 E7.59645
G1 X52.955 Y45.913 E7.61908
G1 X53.684 Y45.999 E7.64717
G1 X54.17 Y46.099 E7.66616
G1 X54.481 Y45.957 E7.67924
G1 X55.047 Y45.786 E7.70187
G1 X55.631 Y45.693 E7.7245
G1 X56.046 Y45.675 E7.7404
G1 X64.99 Y45.717 E8.08269
G1 X65.579 Y45.76 E8.10529
G1 X66.158 Y45.882 E8.12793
G1 X66.715 Y46.08 E8.15056
G1 X67.24 Y46.352 E8.17318
G1 X67.723 Y46.693 E8.19581
G1 X68.156 Y47.095 E8.21842
G1 X68.531 Y47.552 E8.24105
G1 X68.841 Y48.056 E8.26369
G1 X69.08 Y48.597 E8.28633
G1 X69.245 Y49.165 E8.30896
G1 X69.331 Y49.75 E8.33159
G1 X69.335 Y50.162 E8.34736
G1 X69.432 Y50.191 E8.35123
G1 X69.986 Y50.396 E8.37384
G1 X70.508 Y50.674 E8.39647
G1 X70.987 Y51.021 E8.41911
G1 X71.22 Y51.228 E8.43104
G1 X71.581 Y51.574 E8.45017
G1 X71.98 Y52.012 E8.47285
G1 X72.315 Y52.498 E8.49544
G1 X72.492 Y52.827 E8.50973
G1 X72.719 Y53.296 E8.52967
G1 X72.94 Y53.844 E8.55229
G1 X73.085 Y54.418 E8.57494
G1 X73.156 Y55.265 E8.60747
G1 X73.153 Y55.439 E8.61413
G1 X73.281 Y55.933 E8.63366
G1 X73.35 Y56.52 E8.65628
G1 X73.343 Y57.061 E8.67699
G1 X73.315 Y57.444 E8.69168
G1 X73.485 Y57.67 E8.70251
G1 X73.657 Y57.956 E8.71528
G1 X73.782 Y58.183 E8.7252
G1 X74.032 Y58.719 E8.74783
G1 X74.207 Y59.283 E8.77043
G1 X74.304 Y59.867 E8.79309
G1 X74.322 Y60.458 E8.81571
G1 X74.26 Y61.046 E8.83834
G1 X74.12 Y61.618 E8.86088
G1 X74.1 Y61.68 E8.86337
G1 X74.162 Y62.064 E8.87826
G1 X74.206 Y62.492 E8.89472
G1 X74.227 Y63.083 E8.91735
G1 X74.167 Y63.671 E8.93997
G1 X73.938 Y64.509 E8.97322
G1 X73.841 Y64.761 E8.98355
G1 X73.879 Y64.939 E8.99052
G1 X73.922 Y65.529 E9.01316
G1 X73.885 Y66.119 E9.03578
G1 X73.77 Y66.699 E9.05841
G1 X73.659 Y67.047 E9.07239
G1 X73.407 Y67.741 E9.10065
G1 X73.168 Y68.282 E9.12328
G1 X72.859 Y68.786 E9.1459
G1 X72.82 Y68.835 E9.1483
G1 X72.714 Y69.363 E9.16891
G1 X72.456 Y70.067 E9.19761
G1 X72.15 Y70.722 E9.22527
G1 X71.864 Y71.239 E9.24788
G1 X71.511 Y71.714 E9.27053
G1 X70.986 Y72.232 E9.29876
G1 X70.723 Y72.451 E9.31186
G1 X70.244 Y72.798 E9.33449
G1 X69.517 Y73.163 E9.36562
G1 X69.195 Y73.289 E9.37886
G1 X68.631 Y73.467 E9.40149
G1 X67.853 Y73.583 E9.43159
G1 X67.368 Y73.611 E9.45018
G1 X67.003 Y73.607 E9.46415
G1 X66.685 Y73.735 E9.47727
G1 X66.123 Y73.917 E9.49988
G1 X65.541 Y74.023 E9.52252
G1 X64.875 Y74.046 E9.54802
G1 X64.485 Y74.03 E9.56296
G1 X64.289 Y74.009 E9.5705
G1 X63.772 Y74.161 E9.59113
G1 X63.321 Y74.237 E9.60863
G1 X62.809 Y74.296 E9.62835
G1 X62.218 Y74.324 E9.651
G1 X61.789 Y74.294 E9.66746
G1 X61.478 Y74.257 E9.67944
G1 X60.942 Y74.319 E9.70009
G1 X60.35 Y74.307 E9.72275
G1 X59.678 Y74.195 E9.74882
G1 X58.659 Y73.942 E9.789
G1 X58.63 Y73.94 E9.79012
G1 X58.045 Y73.855 E9.81274
G1 X57.477 Y73.692 E9.83535
G1 X56.936 Y73.454 E9.85797
G1 X56.51 Y73.199 E9.87697
G1 X56.274 Y73.039 E9.88789
G1 X55.808 Y72.675 E9.91051
G1 X55.396 Y72.252 E9.93311
G1 X55.11 Y71.876 E9.95119
G1 X54.945 Y71.633 E9.96243
G1 X54.798 Y71.381 E9.9736
G1 X54.459 Y71.158 E9.98913
G1 X53.988 Y70.799 E10.01179
G1 X53.57 Y70.381 E10.03441
G1 X53.213 Y69.91 E10.05703
G1 X52.922 Y69.396 E10.07964
G1 X52.744 Y68.943 E10.09826
G1 X52.531 Y68.845 E10.10724
G1 X51.843 Y68.445 E10.13769
G1 X51.353 Y68.114 E10.16032
G1 X51.005 Y67.812 E10.17796
G1 X49.972 Y66.816 E10.23287
G1 X49.591 Y66.398 E10.25452
G1 X48.787 Y65.392 E10.3038
G1 X48.478 Y64.952 E10.32438
G1 X47.502 Y63.364 E10.39571
G1 X47.143 Y62.638 E10.42671
G1 X46.719 Y61.531 E10.47207
G1 X46.52 Y60.848 E10.4993
G1 X46.421 Y60.367 E10.51809
G1 X46.332 Y59.588 E10.5481
G1 X46.315 Y58.868 E10.57566
G1 X46.341 Y58.278 E10.59826
G1 X46.398 Y57.913 E10.6124
G1 X46.422 Y57.792 E10.61712
G1 X46.305 Y57.58 E10.62639
G1 X46.055 Y57.044 E10.64902
G1 X45.872 Y56.445 E10.67299
G1 X45.785 Y56.065 E10.68791
G1 X45.693 Y55.481 E10.71053
G1 X45.68 Y54.89 E10.73316
G1 X45.746 Y54.303 E10.75576
G1 X45.892 Y53.73 E10.77839
G1 X46.113 Y53.181 E10.80104
G1 X46.215 Y52.988 E10.80939
G1 X46.204 Y52.73 E10.81928
G1 X46.253 Y52.179 E10.84045
G1 X46.298 Y51.883 E10.8519
G1 X46.426 Y51.306 E10.87452
G1 X46.631 Y50.752 E10.89713
G1 X46.857 Y50.315 E10.91596
G1 X47.755 Y48.796 E10.98349
G1 X48.089 Y48.308 E11.00612
G1 X48.327 Y48.034 E11.02001
G0 F1620 X48.354 Y48.003
G0 X48.804 Y47.531
G0 F4320 X49.058 Y47.773
G1 F2400 E11.04657
G1 F1800 X49.477 Y47.391 E11.06827
G1 X50.087 Y46.993 E11.09614
G1 X50.508 Y46.77 E11.11437
G1 X51.027 Y46.541 E11.13608
G1 X51.572 Y46.386 E11.15777
G1 X51.986 Y46.323 E11.17379
G1 X52.4 Y46.281 E11.18972
G1 X52.967 Y46.263 E11.21143
G1 X53.614 Y46.342 E11.23637
G1 X54.211 Y46.464 E11.25969
G1 X54.626 Y46.276 E11.27713
G1 X55.171 Y46.117 E11.29886
G1 X55.732 Y46.036 E11.32055
G1 X56.044 Y46.025 E11.33249
G1 X64.988 Y46.067 E11.67478
G1 X65.553 Y46.11 E11.69647
G1 X66.107 Y46.231 E11.71817
G1 X66.639 Y46.43 E11.73991
G1 X67.137 Y46.701 E11.76161
G1 X67.592 Y47.039 E11.7833
G1 X67.995 Y47.438 E11.805
G1 X68.338 Y47.889 E11.82669
G1 X68.614 Y48.385 E11.84841
G1 X68.818 Y48.914 E11.87011
G1 X68.945 Y49.467 E11.89182
G1 X68.994 Y50.032 E11.91352
G1 X68.972 Y50.421 E11.92843
G1 X69.332 Y50.527 E11.9428
G1 X69.864 Y50.725 E11.96452
G1 X70.362 Y50.996 E11.98622
G1 X70.978 Y51.481 E12.01622
G1 X71.339 Y51.827 E12.03536
G1 X71.72 Y52.247 E12.05706
G1 X72.038 Y52.717 E12.07878
G1 X72.177 Y52.979 E12.09013
G1 X72.404 Y53.448 E12.11007
G1 X72.614 Y53.975 E12.13178
G1 X72.749 Y54.526 E12.15349
G1 X72.806 Y55.26 E12.18166
G1 X72.803 Y55.491 E12.19051
G1 X72.829 Y55.559 E12.19329
G1 X72.956 Y56.111 E12.21497
G1 X73.005 Y56.676 E12.23667
G1 X72.994 Y57.035 E12.25042
G1 X72.96 Y57.492 E12.26795
G1 X72.953 Y57.542 E12.26989
G1 X73.351 Y58.124 E12.29687
G1 X73.476 Y58.351 E12.30679
G1 X73.714 Y58.866 E12.3285
G1 X73.877 Y59.409 E12.3502
G1 X73.962 Y59.97 E12.37191
G1 X73.968 Y60.537 E12.39361
G1 X73.893 Y61.099 E12.41531
G1 X73.786 Y61.512 E12.43164
G1 X73.74 Y61.657 E12.43746
G1 X73.755 Y61.711 E12.4396
G1 X73.814 Y62.099 E12.45462
G1 X73.858 Y62.527 E12.47109
G1 X73.876 Y63.094 E12.4928
G1 X73.814 Y63.658 E12.51451
G1 X73.611 Y64.383 E12.54333
G1 X73.477 Y64.73 E12.55756
G1 X73.544 Y65.08 E12.5712
G1 X73.571 Y65.647 E12.59292
G1 X73.518 Y66.212 E12.61464
G1 X73.33 Y66.928 E12.64297
G1 X73.078 Y67.622 E12.67123
G1 X72.848 Y68.14 E12.69292
G1 X72.547 Y68.62 E12.7146
G1 X72.483 Y68.698 E12.71846
G1 X72.477 Y68.784 E12.72176
G1 X72.357 Y69.338 E12.74345
G1 X72.139 Y69.919 E12.7672
G1 X71.833 Y70.574 E12.79487
G1 X71.557 Y71.069 E12.81656
G1 X71.214 Y71.521 E12.83827
G1 X70.762 Y71.963 E12.86247
G1 X70.499 Y72.182 E12.87556
