;FLAVOR:Marlin
;TIME:1204
;Filament used: 0.531654m
;Layer height: 0.13125
;Generated with Cura_SteamEngine 3.6.0
M140 S65
M105
M190 S65
M104 S205
M105
M109 S205
M82 ;absolute extrusion mode
G21;(metric values)
G90;(absolute positioning)
M82;(set extruder to absolute mode)
M107;(start with the fan off)
G28;(Home the printer)
G92 E0;(Reset the extruder to 0)
G0 Z5 E5 F500;(Move up and prime the nozzle)
G0 X-1 Z0;(Move outside the printable area)
G1 Y60 E8 F500;(Draw a priming/wiping line to the rear)
G1 X-1;(Move a little closer to the print area)
G1 Y10 E16 F500;(draw more priming/wiping)
G1 E15 F250;(Small retract)
G92 E0;(Zero the extruder)
G92 E0
G1 F2400 E-2.5
;LAYER_COUNT:25
;LAYER:0
M107
G0 F4320 X45.867 Y45.88 Z0.263
;TYPE:SKIRT
G1 F2400 E0
G1 F1800 X46.135 Y45.644 E0.01367
G1 X48.407 Y43.778 E0.12618
G1 X48.924 Y43.406 E0.15056
G1 X49.235 Y43.225 E0.16433
G1 X51.831 Y41.837 E0.27699
G1 X52.41 Y41.572 E0.30135
G1 X52.751 Y41.456 E0.31514
G1 X55.563 Y40.603 E0.4276
G1 X56.183 Y40.456 E0.45198
G1 X56.539 Y40.408 E0.46573
G1 X59.467 Y40.12 E0.57832
G1 X60.104 Y40.098 E0.60272
G1 X60.461 Y40.12 E0.6164
G1 X63.388 Y40.408 E0.72896
G1 X64.017 Y40.51 E0.75335
G1 X64.364 Y40.603 E0.7671
G1 X67.176 Y41.456 E0.87955
G1 X67.773 Y41.678 E0.90393
G1 X68.096 Y41.837 E0.91771
G1 X70.692 Y43.225 E1.03036
G1 X71.234 Y43.559 E1.05473
G1 X71.52 Y43.778 E1.06851
G1 X73.79 Y45.642 E1.18092
G1 X74.256 Y46.076 E1.20529
G1 X74.491 Y46.343 E1.21891
G1 X76.357 Y48.615 E1.33142
G1 X76.729 Y49.132 E1.3558
G1 X76.91 Y49.443 E1.36957
G1 X78.298 Y52.039 E1.48223
G1 X78.563 Y52.618 E1.50659
G1 X78.679 Y52.958 E1.52034
G1 X79.532 Y55.769 E1.63276
G1 X79.679 Y56.389 E1.65715
G1 X79.727 Y56.746 E1.67093
G1 X80.015 Y59.672 E1.78345
G1 X80.037 Y60.308 E1.80781
G1 X80.015 Y60.666 E1.82153
G1 X79.727 Y63.595 E1.93417
G1 X79.625 Y64.223 E1.95851
G1 X79.532 Y64.571 E1.9723
G1 X78.679 Y67.383 E2.08476
G1 X78.457 Y67.98 E2.10913
G1 X78.299 Y68.302 E2.12286
G1 X76.912 Y70.898 E2.2355
G1 X76.577 Y71.439 E2.25985
G1 X76.358 Y71.727 E2.2737
G1 X74.493 Y73.998 E2.38616
G1 X74.059 Y74.464 E2.41053
G1 X73.791 Y74.7 E2.4242
G1 X71.519 Y76.565 E2.53669
G1 X71.002 Y76.937 E2.56106
G1 X70.692 Y77.117 E2.57478
G1 X68.096 Y78.505 E2.68744
G1 X67.517 Y78.77 E2.71181
G1 X67.176 Y78.886 E2.72559
G1 X64.364 Y79.739 E2.83805
G1 X63.744 Y79.886 E2.86243
G1 X63.388 Y79.934 E2.87618
G1 X60.461 Y80.222 E2.98874
G1 X59.824 Y80.244 E3.01313
G1 X59.467 Y80.222 E3.02682
G1 X56.539 Y79.934 E3.13942
G1 X55.911 Y79.832 E3.16376
G1 X55.562 Y79.739 E3.17759
G1 X52.751 Y78.886 E3.29001
G1 X52.155 Y78.664 E3.31435
G1 X51.833 Y78.506 E3.32807
G1 X49.236 Y77.118 E3.44076
G1 X48.694 Y76.783 E3.46515
G1 X48.408 Y76.565 E3.47891
G1 X46.136 Y74.7 E3.5914
G1 X45.67 Y74.266 E3.61577
G1 X45.433 Y73.997 E3.62949
G1 X43.569 Y71.726 E3.74193
G1 X43.197 Y71.209 E3.76631
G1 X43.016 Y70.898 E3.78008
G1 X41.629 Y68.302 E3.89272
G1 X41.365 Y67.722 E3.9171
G1 X41.249 Y67.383 E3.93082
G1 X40.396 Y64.571 E4.04327
G1 X40.249 Y63.951 E4.06766
G1 X40.201 Y63.595 E4.08141
G1 X39.913 Y60.67 E4.19389
G1 X39.891 Y60.034 E4.21824
G1 X39.913 Y59.677 E4.23193
G1 X40.201 Y56.747 E4.3446
G1 X40.303 Y56.118 E4.36899
G1 X40.396 Y55.769 E4.38281
G1 X41.249 Y52.958 E4.49523
G1 X41.471 Y52.362 E4.51957
G1 X41.63 Y52.039 E4.53335
G1 X43.018 Y49.443 E4.64601
G1 X43.352 Y48.901 E4.67037
G1 X43.57 Y48.616 E4.6841
G1 X45.397 Y46.39 E4.79431
G0 F1620 X45.433 Y46.346
G0 X45.867 Y45.88
G0 F4320 X46.123 Y46.12
G1 F2400 E4.82087
G1 F1800 X46.357 Y45.915 E4.83278
G1 X48.629 Y44.049 E4.94529
G1 X49.128 Y43.69 E4.96882
G1 X49.4 Y43.533 E4.98084
G1 X51.996 Y42.145 E5.09349
G1 X52.556 Y41.891 E5.11703
G1 X52.852 Y41.79 E5.12899
G1 X55.664 Y40.937 E5.24145
G1 X56.263 Y40.798 E5.26499
G1 X56.573 Y40.757 E5.27695
G1 X59.501 Y40.469 E5.38955
G1 X60.116 Y40.448 E5.4131
G1 X60.427 Y40.469 E5.42503
G1 X63.354 Y40.757 E5.53758
G1 X63.96 Y40.857 E5.56109
G1 X64.263 Y40.937 E5.57308
G1 X67.075 Y41.79 E5.68554
G1 X67.65 Y42.007 E5.70906
G1 X67.931 Y42.145 E5.72104
G1 X70.527 Y43.533 E5.8337
G1 X71.049 Y43.858 E5.85723
G1 X71.298 Y44.048 E5.86922
G1 X73.568 Y45.912 E5.98162
G1 X74.016 Y46.332 E6.00513
G1 X74.22 Y46.565 E6.01698
G1 X76.086 Y48.837 E6.12949
G1 X76.445 Y49.336 E6.15302
G1 X76.602 Y49.608 E6.16504
G1 X77.99 Y52.204 E6.2777
G1 X78.244 Y52.764 E6.30123
G1 X78.344 Y53.06 E6.31318
G1 X79.197 Y55.871 E6.42561
G1 X79.337 Y56.469 E6.44911
G1 X79.378 Y56.78 E6.46111
G1 X79.666 Y59.706 E6.57363
G1 X79.687 Y60.32 E6.59714
G1 X79.666 Y60.631 E6.60907
G1 X79.378 Y63.56 E6.72171
G1 X79.279 Y64.167 E6.74524
G1 X79.198 Y64.47 E6.75725
G1 X78.345 Y67.282 E6.8697
G1 X78.128 Y67.857 E6.89322
G1 X77.99 Y68.137 E6.90517
G1 X76.603 Y70.733 E7.01781
G1 X76.279 Y71.255 E7.04132
G1 X76.087 Y71.505 E7.05339
G1 X74.222 Y73.776 E7.16585
G1 X73.802 Y74.224 E7.18935
G1 X73.569 Y74.429 E7.20123
G1 X71.297 Y76.294 E7.31372
G1 X70.798 Y76.652 E7.33722
G1 X70.527 Y76.809 E7.34921
G1 X67.931 Y78.197 E7.46186
G1 X67.371 Y78.451 E7.4854
G1 X67.075 Y78.552 E7.49737
G1 X64.263 Y79.405 E7.60982
G1 X63.664 Y79.544 E7.63336
G1 X63.354 Y79.585 E7.64532
G1 X60.427 Y79.873 E7.75788
G1 X59.813 Y79.894 E7.78139
G1 X59.501 Y79.873 E7.79336
G1 X56.573 Y79.585 E7.90595
G1 X55.967 Y79.486 E7.92945
G1 X55.664 Y79.404 E7.94147
G1 X52.853 Y78.551 E8.05389
G1 X52.278 Y78.335 E8.07739
G1 X51.998 Y78.197 E8.08934
G1 X49.401 Y76.809 E8.20203
G1 X48.879 Y76.485 E8.22554
G1 X48.63 Y76.294 E8.23755
G1 X46.358 Y74.429 E8.35005
G1 X45.909 Y74.009 E8.37357
G1 X45.704 Y73.775 E8.38548
G1 X43.84 Y71.504 E8.49792
G1 X43.482 Y71.004 E8.52145
G1 X43.325 Y70.733 E8.53344
G1 X41.938 Y68.137 E8.64608
G1 X41.684 Y67.577 E8.66961
G1 X41.583 Y67.282 E8.68154
G1 X40.73 Y64.47 E8.794
G1 X40.591 Y63.871 E8.81753
G1 X40.55 Y63.561 E8.8295
G1 X40.262 Y60.636 E8.94198
G1 X40.241 Y60.022 E8.96549
G1 X40.262 Y59.711 E8.97742
G1 X40.55 Y56.781 E9.09009
G1 X40.649 Y56.174 E9.11363
G1 X40.731 Y55.871 E9.12564
G1 X41.584 Y53.06 E9.23806
G1 X41.8 Y52.485 E9.26157
G1 X41.938 Y52.204 E9.27355
G1 X43.326 Y49.608 E9.38621
G1 X43.651 Y49.086 E9.40974
G1 X43.841 Y48.838 E9.4217
G1 X45.653 Y46.63 E9.53101
G0 F1620 X45.704 Y46.568
G0 X46.123 Y46.12
G0 F4320 X46.579 Y46.185
G1 F2400 E9.55757
G1 F1800 X48.851 Y44.319 E9.67008
G1 X49.565 Y43.842 E9.70294
G1 X52.161 Y42.454 E9.8156
G1 X52.954 Y42.125 E9.84846
G1 X55.766 Y41.272 E9.96092
G1 X56.608 Y41.105 E9.99377
G1 X59.536 Y40.817 E10.10636
G1 X60.392 Y40.817 E10.13912
G1 X63.319 Y41.105 E10.25168
G1 X64.161 Y41.272 E10.28453
G1 X66.973 Y42.125 E10.39699
G1 X67.766 Y42.454 E10.42984
G1 X70.362 Y43.842 E10.5425
G1 X71.075 Y44.319 E10.57533
G1 X73.345 Y46.183 E10.68774
G1 X73.95 Y46.787 E10.72046
G1 X75.816 Y49.059 E10.83297
G1 X76.293 Y49.773 E10.86583
G1 X77.681 Y52.369 E10.97849
G1 X78.009 Y53.162 E11.01133
G1 X78.862 Y55.973 E11.12375
G1 X79.03 Y56.814 E11.15657
G1 X79.318 Y59.74 E11.26909
G1 X79.318 Y60.597 E11.30189
G1 X79.03 Y63.526 E11.41452
G1 X78.863 Y64.368 E11.44737
G1 X78.01 Y67.18 E11.55983
G1 X77.682 Y67.972 E11.59264
G1 X76.295 Y70.568 E11.70528
G1 X75.817 Y71.283 E11.73819
G1 X73.952 Y73.554 E11.85065
G1 X73.347 Y74.159 E11.8834
G1 X71.075 Y76.024 E11.99589
G1 X70.362 Y76.5 E12.0287
G1 X67.766 Y77.888 E12.14136
G1 X66.973 Y78.217 E12.17421
G1 X64.161 Y79.07 E12.28667
G1 X63.319 Y79.237 E12.31952
G1 X60.392 Y79.525 E12.43208
G1 X59.536 Y79.525 E12.46484
G1 X56.608 Y79.237 E12.57743
G1 X55.766 Y79.069 E12.61029
G1 X52.955 Y78.216 E12.72271
G1 X52.163 Y77.888 E12.75552
G1 X49.566 Y76.5 E12.86821
G1 X48.852 Y76.024 E12.90105
G1 X46.58 Y74.159 E13.01354
G1 X45.974 Y73.553 E13.04634
G1 X44.11 Y71.282 E13.15878
G1 X43.633 Y70.568 E13.19164
G1 X42.246 Y67.972 E13.30428
G1 X41.918 Y67.18 E13.33708
G1 X41.065 Y64.368 E13.44954
G1 X40.898 Y63.527 E13.48235
G1 X40.61 Y60.602 E13.59483
G1 X40.61 Y59.745 E13.62763
G1 X40.898 Y56.815 E13.7403
G1 X41.066 Y55.973 E13.77316
G1 X41.919 Y53.162 E13.88558
G1 X42.247 Y52.369 E13.91842
G1 X43.635 Y49.773 E14.03108
G1 X44.111 Y49.06 E14.06389
G1 X45.974 Y46.79 E14.17627
G1 X46.088 Y46.676 E14.18244
G0 F1620 X46.579 Y46.185
G0 F4320 X46.801 Y46.456
G1 F2400 E14.209
G1 F1800 X49.073 Y44.59 E14.32152
G1 X49.73 Y44.15 E14.35178
G1 X52.326 Y42.762 E14.46444
G1 X53.056 Y42.46 E14.49467
G1 X55.868 Y41.607 E14.60713
G1 X56.642 Y41.453 E14.63733
G1 X59.57 Y41.165 E14.74993
G1 X60.358 Y41.165 E14.78008
G1 X63.285 Y41.453 E14.89264
G1 X64.059 Y41.607 E14.92284
G1 X66.871 Y42.46 E15.0353
G1 X67.601 Y42.762 E15.06553
G1 X70.197 Y44.15 E15.17819
G1 X70.853 Y44.589 E15.2084
G1 X73.123 Y46.453 E15.32081
G1 X73.679 Y47.009 E15.3509
G1 X75.545 Y49.281 E15.46341
G1 X75.985 Y49.938 E15.49367
G1 X77.373 Y52.534 E15.60633
G1 X77.675 Y53.263 E15.63653
G1 X78.528 Y56.074 E15.74895
G1 X78.682 Y56.849 E15.77919
G1 X78.97 Y59.775 E15.89171
G1 X78.97 Y60.563 E15.92187
G1 X78.682 Y63.492 E16.0345
G1 X78.528 Y64.266 E16.0647
G1 X77.675 Y67.078 E16.17716
G1 X77.373 Y67.807 E16.20736
G1 X75.986 Y70.403 E16.32
G1 X75.547 Y71.06 E16.35023
G1 X73.682 Y73.331 E16.4627
G1 X73.125 Y73.888 E16.49284
G1 X70.853 Y75.753 E16.60533
G1 X70.197 Y76.192 E16.63554
G1 X67.601 Y77.58 E16.7482
G1 X66.871 Y77.882 E16.77843
G1 X64.059 Y78.735 E16.89089
G1 X63.285 Y78.889 E16.92109
G1 X60.358 Y79.177 E17.03365
G1 X59.57 Y79.177 E17.06381
G1 X56.642 Y78.889 E17.1764
G1 X55.867 Y78.735 E17.20664
G1 X53.056 Y77.882 E17.31906
G1 X52.328 Y77.58 E17.34922
G1 X49.731 Y76.192 E17.46192
G1 X49.074 Y75.753 E17.49216
G1 X46.802 Y73.888 E17.60465
G1 X46.245 Y73.331 E17.63479
G1 X44.381 Y71.06 E17.74723
G1 X43.942 Y70.403 E17.77747
G1 X42.555 Y67.807 E17.89011
G1 X42.253 Y67.078 E17.92031
G1 X41.4 Y64.266 E18.03277
G1 X41.246 Y63.492 E18.06297
G1 X40.958 Y60.567 E18.17545
G1 X40.958 Y59.779 E18.2056
G1 X41.246 Y56.849 E18.31828
G1 X41.4 Y56.074 E18.34851
G1 X42.253 Y53.263 E18.46094
G1 X42.555 Y52.534 E18.49113
G1 X43.943 Y49.938 E18.60379
G1 X44.382 Y49.283 E18.63397
G1 X46.245 Y47.013 E18.74635
G1 X46.311 Y46.947 E18.74992
G0 F1620 X46.801 Y46.456
G0 F4320 X47.024 Y46.726
G1 F2400 E18.77648
G1 F1800 X49.296 Y44.86 E18.889
G1 X49.895 Y44.459 E18.91658
G1 X52.491 Y43.071 E19.02924
G1 X53.157 Y42.795 E19.05683
G1 X55.969 Y41.942 E19.16929
G1 X56.676 Y41.802 E19.19687
G1 X59.604 Y41.514 E19.30947
G1 X60.324 Y41.514 E19.33702
G1 X63.251 Y41.802 E19.44958
G1 X63.958 Y41.942 E19.47716
G1 X66.77 Y42.795 E19.58962
G1 X67.436 Y43.071 E19.61721
G1 X70.032 Y44.459 E19.72987
G1 X70.631 Y44.86 E19.75745
G1 X72.901 Y46.724 E19.86986
G1 X73.409 Y47.232 E19.89735
G1 X75.275 Y49.504 E20.00987
G1 X75.676 Y50.103 E20.03746
G1 X77.064 Y52.699 E20.15011
G1 X77.34 Y53.365 E20.1777
G1 X78.193 Y56.176 E20.29012
G1 X78.333 Y56.883 E20.31771
G1 X78.621 Y59.809 E20.43023
G1 X78.621 Y60.529 E20.45778
G1 X78.333 Y63.458 E20.57041
G1 X78.193 Y64.165 E20.598
G1 X77.34 Y66.977 E20.71045
G1 X77.064 Y67.642 E20.73801
G1 X75.677 Y70.238 E20.85065
G1 X75.276 Y70.838 E20.87826
G1 X73.411 Y73.109 E20.99073
G1 X72.903 Y73.618 E21.01825
G1 X70.631 Y75.483 E21.13074
G1 X70.032 Y75.883 E21.1583
G1 X67.436 Y77.271 E21.27096
G1 X66.77 Y77.547 E21.29855
G1 X63.958 Y78.4 E21.41101
G1 X63.251 Y78.54 E21.43859
G1 X60.324 Y78.828 E21.55115
G1 X59.604 Y78.828 E21.5787
G1 X56.676 Y78.54 E21.6913
G1 X55.969 Y78.4 E21.71888
G1 X53.158 Y77.547 E21.8313
G1 X52.493 Y77.271 E21.85886
G1 X49.896 Y75.883 E21.97155
G1 X49.296 Y75.483 E21.99914
G1 X47.024 Y73.618 E22.11163
G1 X46.515 Y73.109 E22.13918
G1 X44.651 Y70.838 E22.25162
G1 X44.251 Y70.238 E22.27922
G1 X42.864 Y67.642 E22.39186
G1 X42.588 Y66.977 E22.41941
G1 X41.735 Y64.165 E22.53187
G1 X41.595 Y63.458 E22.55945
G1 X41.307 Y60.533 E22.67193
G1 X41.307 Y59.814 E22.69945
G1 X41.595 Y56.884 E22.81212
G1 X41.735 Y56.176 E22.83974
G1 X42.588 Y53.365 E22.95216
G1 X42.864 Y52.699 E22.97975
G1 X44.252 Y50.103 E23.09241
G1 X44.652 Y49.505 E23.11994
G1 X46.515 Y47.235 E23.23232
G1 X46.533 Y47.217 E23.2333
G0 F1620 X47.024 Y46.726
G0 F4320 X47.246 Y46.997
G1 F2400 E23.25986
G1 F1800 X49.518 Y45.131 E23.37237
G1 X50.06 Y44.768 E23.39734
G1 X52.656 Y43.38 E23.51
G1 X53.259 Y43.13 E23.53498
G1 X56.071 Y42.277 E23.64744
G1 X56.711 Y42.15 E23.67241
G1 X59.639 Y41.862 E23.785
G1 X60.29 Y41.862 E23.80991
G1 X63.217 Y42.15 E23.92247
G1 X63.856 Y42.277 E23.9474
G1 X66.668 Y43.13 E24.05986
G1 X67.271 Y43.38 E24.08484
G1 X69.867 Y44.768 E24.1975
G1 X70.409 Y45.13 E24.22244
G1 X72.679 Y46.994 E24.33485
G1 X73.138 Y47.454 E24.35972
G1 X75.004 Y49.726 E24.47224
G1 X75.367 Y50.268 E24.4972
G1 X76.755 Y52.864 E24.60986
G1 X77.005 Y53.467 E24.63484
G1 X77.858 Y56.278 E24.74726
G1 X77.985 Y56.917 E24.77219
G1 X78.273 Y59.843 E24.88471
G1 X78.273 Y60.494 E24.90963
G1 X77.985 Y63.423 E25.02226
G1 X77.858 Y64.063 E25.04723
G1 X77.005 Y66.875 E25.15969
G1 X76.756 Y67.477 E25.18462
G1 X75.369 Y70.073 E25.29726
G1 X75.006 Y70.616 E25.32226
G1 X73.141 Y72.887 E25.43472
G1 X72.681 Y73.347 E25.45961
G1 X70.409 Y75.212 E25.57211
G1 X69.867 Y75.574 E25.59705
G1 X67.271 Y76.962 E25.70971
G1 X66.668 Y77.212 E25.73469
G1 X63.856 Y78.065 E25.84715
G1 X63.217 Y78.192 E25.87208
G1 X60.29 Y78.48 E25.98463
G1 X59.639 Y78.48 E26.00955
G1 X56.711 Y78.192 E26.12214
G1 X56.071 Y78.065 E26.14711
G1 X53.26 Y77.212 E26.25953
G1 X52.658 Y76.962 E26.28448
G1 X50.061 Y75.574 E26.39717
G1 X49.518 Y75.212 E26.42215
G1 X47.246 Y73.347 E26.53464
G1 X46.786 Y72.887 E26.55954
G1 X44.922 Y70.616 E26.67197
G1 X44.559 Y70.073 E26.69697
G1 X43.172 Y67.477 E26.80961
G1 X42.923 Y66.875 E26.83454
G1 X42.07 Y64.063 E26.947
G1 X41.943 Y63.424 E26.97193
G1 X41.655 Y60.499 E27.08441
G1 X41.655 Y59.848 E27.10933
G1 X41.943 Y56.918 E27.222
G1 X42.07 Y56.278 E27.24697
G1 X42.923 Y53.467 E27.35939
G1 X43.173 Y52.864 E27.38437
G1 X44.561 Y50.268 E27.49703
G1 X44.923 Y49.727 E27.52194
G1 X46.759 Y47.491 E27.63266
G0 F1620 X46.786 Y47.457
G0 X47.246 Y46.997
G0 F4320 X47.468 Y47.267
G1 F2400 E27.65922
G1 F1800 X49.74 Y45.401 E27.77174
G1 X50.225 Y45.076 E27.79408
G1 X52.821 Y43.688 E27.90674
G1 X53.36 Y43.465 E27.92906
G1 X56.172 Y42.612 E28.04152
G1 X56.745 Y42.498 E28.06388
G1 X59.673 Y42.21 E28.17647
G1 X60.255 Y42.21 E28.19874
G1 X63.182 Y42.498 E28.3113
G1 X63.755 Y42.612 E28.33366
G1 X66.567 Y43.465 E28.44612
G1 X67.106 Y43.688 E28.46844
G1 X69.702 Y45.076 E28.5811
G1 X70.187 Y45.401 E28.60344
G1 X72.457 Y47.265 E28.71585
G1 X72.868 Y47.676 E28.73809
G1 X74.734 Y49.948 E28.85061
G1 X75.059 Y50.433 E28.87295
G1 X76.447 Y53.029 E28.98561
G1 X76.67 Y53.568 E29.00793
G1 X77.523 Y56.379 E29.12035
G1 X77.637 Y56.952 E29.14271
G1 X77.925 Y59.878 E29.25523
G1 X77.925 Y60.46 E29.2775
G1 X77.637 Y63.389 E29.39014
G1 X77.523 Y63.962 E29.4125
G1 X76.67 Y66.774 E29.52495
G1 X76.447 Y67.312 E29.54724
G1 X75.06 Y69.908 E29.65988
G1 X74.735 Y70.394 E29.68226
G1 X72.87 Y72.665 E29.79472
G1 X72.459 Y73.076 E29.81696
G1 X70.187 Y74.941 E29.92945
G1 X69.702 Y75.266 E29.9518
G1 X67.106 Y76.654 E30.06445
G1 X66.567 Y76.877 E30.08678
G1 X63.755 Y77.73 E30.19923
G1 X63.182 Y77.844 E30.22159
G1 X60.255 Y78.132 E30.33415
G1 X59.673 Y78.132 E30.35642
G1 X56.745 Y77.844 E30.46902
G1 X56.172 Y77.73 E30.49138
G1 X53.361 Y76.877 E30.6038
G1 X52.823 Y76.654 E30.62609
G1 X50.226 Y75.266 E30.73878
G1 X49.74 Y74.941 E30.76115
G1 X47.468 Y73.076 E30.87364
G1 X47.056 Y72.664 E30.89594
G1 X45.192 Y70.393 E31.00838
G1 X44.868 Y69.908 E31.0307
G1 X43.481 Y67.312 E31.14334
G1 X43.258 Y66.774 E31.16563
G1 X42.405 Y63.962 E31.27809
G1 X42.291 Y63.39 E31.30041
G1 X42.003 Y60.465 E31.41289
G1 X42.003 Y59.882 E31.4352
G1 X42.291 Y56.952 E31.54787
G1 X42.405 Y56.379 E31.57023
G1 X43.258 Y53.568 E31.68265
G1 X43.481 Y53.029 E31.70497
G1 X44.869 Y50.433 E31.81763
G1 X45.193 Y49.949 E31.83992
G1 X46.985 Y47.765 E31.94804
G0 F1620 X47.056 Y47.679
G0 X47.468 Y47.267
G0 F4320 X47.69 Y47.537
G1 F2400 E31.97459
G1 F1800 X49.962 Y45.671 E32.08711
G1 X50.39 Y45.385 E32.10681
G1 X52.986 Y43.997 E32.21947
G1 X53.462 Y43.8 E32.23918
G1 X56.274 Y42.947 E32.35164
G1 X56.779 Y42.847 E32.37134
G1 X59.707 Y42.559 E32.48394
G1 X60.221 Y42.559 E32.50361
G1 X63.148 Y42.847 E32.61617
G1 X63.653 Y42.947 E32.63587
